src/lib/packages/icons/src/assets/line/lock.svg

<svg xmlns="http://www.w3.org/2000/svg" width="24" height="24" fill="none"><path fill="currentColor" d="M16.75 8.304V7A4.756 4.756 0 0 0 12 2.25 4.756 4.756 0 0 0 7.25 7v1.304c-1.938.257-3 1.542-3 3.696v6c0 2.418 1.332 3.75 3.75 3.75h8c2.418 0 3.75-1.332 3.75-3.75v-6c0-2.153-1.062-3.438-3-3.696ZM12 3.75A3.254 3.254 0 0 1 15.25 7v1.25h-6.5V7A3.254 3.254 0 0 1 12 3.75ZM18.25 18c0 1.577-.673 2.25-2.25 2.25H8c-1.577 0-2.25-.673-2.25-2.25v-6c0-1.577.673-2.25 2.25-2.25h8c1.577 0 2.25.673 2.25 2.25v6Zm-4.98-4c0 .412-.212.76-.52.987V17a.75.75 0 0 1-1.5 0v-2.038a1.228 1.228 0 0 1-.485-.962c0-.69.555-1.25 1.245-1.25h.01c.69 0 1.25.56 1.25 1.25Z"/></svg>

<svg width="24" height="24" viewBox="0 0 24 24" fill="none" xmlns="http://www.w3.org/2000/svg">
<path d="M16.75 8.30396V7C16.75 4.381 14.619 2.25 12 2.25C9.381 2.25 7.25 4.381 7.25 7V8.30396C5.312 8.56096 4.25 9.846 4.25 12V18C4.25 20.418 5.582 21.75 8 21.75H16C18.418 21.75 19.75 20.418 19.75 18V12C19.75 9.847 18.688 8.56195 16.75 8.30396ZM12 3.75C13.792 3.75 15.25 5.208 15.25 7V8.25H8.75V7C8.75 5.208 10.208 3.75 12 3.75ZM18.25 18C18.25 19.577 17.577 20.25 16 20.25H8C6.423 20.25 5.75 19.577 5.75 18V12C5.75 10.423 6.423 9.75 8 9.75H16C17.577 9.75 18.25 10.423 18.25 12V18ZM13.27 14C13.27 14.412 13.058 14.7601 12.75 14.9871V17C12.75 17.414 12.414 17.75 12 17.75C11.586 17.75 11.25 17.414 11.25 17V14.9619C10.962 14.7329 10.7649 14.395 10.7649 14C10.7649 13.31 11.32 12.75 12.01 12.75H12.02C12.71 12.75 13.27 13.31 13.27 14Z" fill="currentColor"/>
</svg>
